frontend/svgs/biz056.svg

<?xml version="1.0" encoding="UTF-8"?> <svg width="100px" height="100px" viewBox="0 0 100 100" version="1.1" xmlns="http://www.w3.org/2000/svg" xmlns:xlink="http://www.w3.org/1999/xlink"> <g id="56.-Bulb" stroke="none" stroke-width="1" fill="none" fill-rule="evenodd" stroke-linecap="round" stroke-linejoin="round"> <path d="M50.4994502,97.9789771 C41.1708765,97.9789771 40.2040272,89.8648916 40.3046543,86.6365426 L60.699838,86.6365426 C60.5343264,89.7734431 59.8280239,97.9789771 50.4994502,97.9789771 L50.4994502,97.9789771 Z" id="Path" stroke="#C8D6E5" stroke-width="4" fill="#C8D6E5"></path> <path d="M40.3046543,76.9836024 C39.8782962,71.4606526 28.0135723,65.8527335 28.0135723,51.8982154 C28.0135723,37.0143009 38.8244126,29.122092 50.6068466,28.8235294 C62.3926822,29.1234053 73.202672,37.0143009 73.202672,51.8982154 C73.2035224,65.8527335 61.2531589,71.4006556 60.699838,76.983601 L40.3046543,76.9836024 L40.3046543,76.9836024 Z" id="Path" stroke="#FEC957" stroke-width="4" fill="#FEC957"></path> <path d="M50.040717,2 L50.040717,16.1176471" id="Layer-2" stroke="#FEB557" stroke-width="4"></path> <path d="M83.1792729,10.4705882 L73.4445583,20.4532722" id="Layer-3" stroke="#FEB557" stroke-width="4"></path> <path d="M17,10.4705882 L26.7347146,20.4532722" id="Layer-4" stroke="#FEB557" stroke-width="4"></path> </g> </svg>

<svg width="100" height="100" xmlns="http://www.w3.org/2000/svg"><g fill="none" fill-rule="evenodd" stroke-linecap="round" stroke-linejoin="round" stroke-width="4"><path d="M50.5 97.979c-9.33 0-10.296-8.114-10.195-11.342H60.7c-.166 3.136-.872 11.342-10.2 11.342h0z" stroke="#C8D6E5" fill="#C8D6E5"/><path d="M40.305 76.984c-.427-5.523-12.291-11.131-12.291-25.086 0-14.884 10.81-22.776 22.593-23.074 11.786.3 22.596 8.19 22.596 23.074 0 13.955-11.95 19.503-12.503 25.086H40.305h0z" stroke="#FEC957" fill="#FEC957"/><path d="M50.04 2v14.118M83.18 10.47l-9.735 9.983M17 10.47l9.735 9.983" stroke="#FEB557"/></g></svg>
